X: 1
T:Pinch of Snuff, The
R:reel
H:There are two other versions of this tune, #36 and #236.
H:There is a different tune by the same name, #441.
D:Kevin Burke: If the Cap Fits
Z:id:hn-reel-634
M:C|
K:D
DFAF BFAF|DFAF EDEF|DFAF BFAF|1 G2BG EFGE:|2 G2BG EFGB||
K:G
|:dB~B2 ABGB|dB~B2 ABcA|dB~B2 ABGB|c2ec ABcA:|
GB~B2 eBdB|GBdB ABcA|GB~B2 eBdB|c2ec ABcA|
GB~B2 eB~B2|GB~B2 ABcA|GB~B2 eB~B2|c2ec ABcA||
K:D
|:afdf efdf|afdf efge|afdf efdf|g2bg efge:|
df~f2 bfaf|dfaf efge|df~f2 bfaf|g2bg efge|
df~f2 bf~f2|df~f2 efge|df~f2 bfaf|g2bg efge||
|:~f3e ~d3B|ABAF DFAF|DFAF BFAF|G2BG EFGE:|
